X:40
T: Night Cap
S: "Treoir" 32/3
Z: B.Black
M: 6/8
L: 1/8
Q: 325
R: jig
K: D
D |: FAA A2 D | FAA AFD | GBB B2 D | GBB dBA |
FAA A2 D | FAA AFD | FAA d2 B | AFF E2 D :|
FED ADD | BAF ADD | FED ADD | BAG FED |
FED ADD | BAF ADD | FAA d2 B | AFF E2 D :|
